X: 4
T: John Ryan's
R: polka
M: 2/4
L: 1/8
K: Dmaj
|: A | dd B/c/d/B/ | AF AF | dd B/c/d/B/ | AF ED |
dd B/c/d/B/ | AF Ad/e/ | fd ec |d2 d :|
|: d/e/ | fd de/f/ | gf ea/g/ | fd A2 | fd a z |
fd de/f/ | gf ea/g/ | fd ec | | d2 d :|


Tune 441	Setting 28845

